!!!OTL: "Die Unglueckliche" DEN MANN DEN I NIT MAG
!!!ARE: Europa, Mitteleuropa, Steiermark
!!!SCT: Z1210
!!!YEM: Copyright 1995, estate of Helmut Schaffrath.
**kern
*ICvox
*Ivox
*M3/4
*k[f#c#g#]
*A:
=1
{4a
4ff#
4ff#
=2
4ff#
8ee
8dd
4ee}
=3
{4g#
4dd
4dd
=4
4dd
8cc#
8b
4cc#}
=5
{4a
4ff#
4ff#
=6
4ff#
8ee
8dd
4ee}
=7
{4g#
4dd
8a
8dd
=8
2.cc#}
==
!!!AGN: Liebes - Lied, verlassene Liebe
!!!ONB: ESAC (Essen Associative Code) Database: ZUCCAL
!!!AMT: simple triple
!!!AIN: vox
!!!EED: Helmut Schaffrath
!!!EEV: 1.0
*-
